X: 8
T: Toss The Feathers
R: reel
M: 4/4
L: 1/8
K: Dmix
|: D2 AD D2 AD | D2 AG EGGE | D2 AD D/E/D EG |[1 AddB cAGE :|[2 Addd cAGc ||
Add^c d4 | edcd edd/d/d | eaag edcd | edcd edd/d/d |
eaag ef g/f/e | d2 ed cAGE | D2 F/E/D EGAB | cded cAGE |]


Tune 138	Setting 12756

